X: 1251
T: Keten Köynek Filfili
C: Bulduk Duvan
O: Turkey
F: http://compmusic.upf.edu/node/140
N: segah--turku--sofyan--keten_koynek--kirsehir-mucur
N: makam= segah
N: form= turku
N: usul= sofyan = 4/4
M: 4/4
L: 1/16
K: C _1/4B _1/4e ^f 
Q: 1/4=114
%%MIDI tuningsystem comma53
G2G2 A2B2 ccd2 d2z2  | d2{g}fg e2d2 d2cB B4  | \
w:  ARANAĞME  |   | 
G2G2 A2B2 ccd2 d2z2  | 
w:   | 
d2{g}fg e2d2 d2cB B4  | z4 f2g2 g2g2 g4  | \
w:   |  Ke ten  köy nek   | 
g2f2 a2a2 g2fg e2d2  | 
w:  *  *  fil fi li    | 
z4 a2a2 g2fg e2d2  | d2e4d2 d2cB .B4  | \
w:  Ner den_ al *  *  dın   |  bu  di li  ne ne *  ler    | 
G2G2 A2B2 ccd2 d2z2  | 
w:  Am ma ğa nın  ne ne *  ler    | 
d2{g}fg e2d2 d2cB B4  | G2G2 A2B2 ccd2 d2z2  | \
w:  İnc_ *  *  e lek ten  un_ e *  ler    |  İn ce le ğin  u nu *  yum    | 
d2{g}fg e2d2 d2cB B4  | 
w:  Ben  *  *  de  Al lah  ku lu *  yum    | 
G2G2 A2B2 ccd2 d2z2  | d2{g}fg e2d2 d2cB B4  | \
w:  ARANAĞME  |   | 
G2G2 A2B2 ccd2 d2z2  | 
w:   | 
d2{g}fg e2d2 d2cB B4  | z4 f2g2 g2g2 g4  | \
w:   |  Ke ten  köy nek   | 
g2f2 a2a2 g2fg e2d2  | 
w:  *  *  fil fi li    | 
z4 a2a2 g2fg e2d2  | d2e4d2 d2cB .B4  | \
w:  Ner den_ al *  *  dın   |  bu  di li  ne ne *  ler    | 
G2G2 A2B2 ccd2 d2z2  | 
w:  Am ma ğa nın  ne ne *  ler    | 
d2{g}fg e2d2 d2cB B4  | G2G2 A2B2 ccd2 d2z2  | \
w:  İnc_ *  *  e lek ten  un_ e *  ler    |  İn ce le ğin  u nu *  yum    | 
d2{g}fg e2d2 d2cB B4  | 
w:  Ben  *  *  de  Al lah  ku lu *  yum    | 
|


